packages/core/src/svgs/lbr.svg

<svg width="24" height="24" viewBox="0 0 24 24" fill="none" xmlns="http://www.w3.org/2000/svg">
<g clip-path="url(#clip0_31_13026)">
<path d="M0 0H24V24H0V0Z" fill="url(#paint0_linear_31_13026)"/>
<path d="M6 15.4286H10.5729L7.51286 11.9786L12 6.42007L16.5557 11.9786L13.3929 15.4286H18V14.1429H16.1614L18 11.9786L12 4.71436L6 11.9786L7.90286 14.1429H6V15.4286ZM18 16.2858H6V17.5715H18V16.2858Z" fill="white"/>
</g>
<defs>
<linearGradient id="paint0_linear_31_13026" x1="12" y1="0" x2="12" y2="24" gradientUnits="userSpaceOnUse">
<stop stop-color="#FB9C96"/>
<stop offset="1" stop-color="#5C9DED"/>
</linearGradient>
<clipPath id="clip0_31_13026">
<rect width="24" height="24" fill="white"/>
</clipPath>
</defs>
</svg>

<svg xmlns="http://www.w3.org/2000/svg" width="24" height="24" fill="none" viewBox="0 0 24 24"><g clip-path="url(#a)"><path fill="url(#b)" d="M0 0h24v24H0z"/><path fill="#fff" d="M6 15.429h4.573l-3.06-3.45L12 6.42l4.556 5.559-3.163 3.45H18v-1.286h-1.839L18 11.979l-6-7.265-6 7.265 1.903 2.164H6zm12 .857H6v1.285h12z"/></g><defs><linearGradient id="b" x1="12" x2="12" y1="0" y2="24" gradientUnits="userSpaceOnUse"><stop stop-color="#FB9C96"/><stop offset="1" stop-color="#5C9DED"/></linearGradient><clipPath id="a"><path fill="#fff" d="M0 0h24v24H0z"/></clipPath></defs></svg>
